X: 9145
T: Daisy Bell
R: reel
M: 4/4
K: Dmajor
|:A/B/c||d2dc defg|a2a^g afdf|=gBB/B/B BccB|Aa^ga baga|
fdd/d/d Adfd|=gBB/B/B B2cB|ABcd edcB|ABcA d2A/B/c:|
|:dcde fedc|Bgg/g/g agfg|efde cdBc|Aaa/a/a ba^ga|
fdd/d/d Adfd|=gBB/B/B B2cB|ABcd edcB|ABcA d2A/B/c:|

